**harmony	**harte	**kern	**silbe	**kern	**silbe	**rhyme	**timestamp	**phrase
*M4/4	*M4/4	*ICvox	*	*ICvox	*	*	*	*
*	*	*VRlead	*	*VRresponse	*	*	*	*
*	*	*Hstimme	*	*Nstimme	*	*	*	*
*g:	*g:	*g:	*	*g:	*	*	*g:	*g:
*	*	*M4/4	*	*M4/4	*	*	*	*
*	*	*clefF4	*	*clefF4	*	*	*	*
1r;	1r	r;	.	r;	.	.	0	.
=1	=1	=1	=1	=1	=1	=1	=1	=1
*>Letter>A	*>Letter>A	*>Letter>A	*>Letter>A	*>Letter>A	*>Letter>A	*>Letter>A	*>Letter>A	*>Letter>A
*>Label>Intro	*>Label>Intro	*>Label>Intro	*>Label>Intro	*>Label>Intro	*>Label>Intro	*>Label>Intro	*>Label>Intro	*>Label>Intro
*M2/4	*M2/4	*	*	*	*	*	*M2/4	*M2/4
8FM	F:maj	2r	.	2r	.	.	0.441	newline
4E-M	E-:maj	.	.	.	.	.	1.044	.
8DM	D:maj(9)	.	.	.	.	.	.	.
=2	=2	=2	=2	=2	=2	=2	=2	=2
*M4/4	*M4/4	*M4/4	*	*M4/4	*	*	*M4/4	*M4/4
1DM	D:maj(9)	1r	.	1r	.	.	1.646	.
=3	=3	=3	=3	=3	=3	=3	=3	=3
*M2/4	*M2/4	*M2/4	*	*M2/4	*	*	*M2/4	*M2/4
8E-M	E-:maj	2r	.	2r	.	.	4.055	.
4DM	D:maj	.	.	.	.	.	4.658	.
8Cmm	C:min7	.	.	.	.	.	.	.
=4	=4	=4	=4	=4	=4	=4	=4	=4
*M4/4	*M4/4	*M4/4	*	*M4/4	*	*	*M4/4	*M4/4
1Cmm	C:min7	1r	.	1r	.	.	5.26	.
=5	=5	=5	=5	=5	=5	=5	=5	=5
*M2/4	*M2/4	*M2/4	*	*M2/4	*	*	*M2/4	*M2/4
8Cmm	C:min7	2r	.	2r	.	.	7.669	.
4B-M	B-:maj/3	.	.	.	.	.	8.272	.
8E-M	E-:maj	.	.	.	.	.	.	.
=6	=6	=6	=6	=6	=6	=6	=6	=6
*M4/4	*M4/4	*M4/4	*	*M4/4	*	*	*M4/4	*M4/4
1E-M	E-:maj	1r	.	1r	.	.	8.874	newline
=7	=7	=7	=7	=7	=7	=7	=7	=7
1FM	F:maj	1r	.	1r	.	.	11.232	.
=8	=8	=8	=8	=8	=8	=8	=8	=8
1Gmm	G:min7	1r	.	1r	.	.	13.59	newline
=9	=9	=9	=9	=9	=9	=9	=9	=9
1Gmm	G:min7	1r	.	1r	.	.	15.976	.
=10	=10	=10	=10	=10	=10	=10	=10	=10
1Gmm	G:min7	1r	.	1r	.	.	18.362	.
=11	=11	=11	=11	=11	=11	=11	=11	=11
1Gmm	G:min7	1r	.	1r	.	.	20.749	.
=12	=12	=12	=12	=12	=12	=12	=12	=12
*>Letter>B	*>Letter>B	*>Letter>B	*>Letter>B	*>Letter>B	*>Letter>B	*>Letter>B	*>Letter>B	*>Letter>B
*>Label>Verse	*>Label>Verse	*>Label>Verse	*>Label>Verse	*>Label>Verse	*>Label>Verse	*>Label>Verse	*>Label>Verse	*>Label>Verse
1Gmm	G:min7	8r	.	1r	.	.	23.135	newline
.	.	8B-	You	.	.	.	.	.
.	.	8B-	got	.	.	.	.	.
.	.	16B-	me	.	.	.	.	.
.	.	16B-	loo-	.	.	.	.	.
.	.	8r	.	.	.	.	.	.
.	.	8B-	-kin'	.	.	.	.	.
.	.	8B-	at	.	.	.	.	.
.	.	8B-	that	.	.	.	.	.
=13	=13	=13	=13	=13	=13	=13	=13	=13
1FM	F:maj	8c	hea-	1r	.	(A	25.497	.
.	.	16c	-ven	.	.	a)	.	.
.	.	[16c	in	.	.	.	.	.
.	.	16c]	_	.	.	.	.	.
.	.	8c	your	.	.	.	.	.
.	.	16G	eyes	.	.	B	.	.
.	.	8F	_	.	.	.	.	.
.	.	8r	.	.	.	.	.	.
.	.	16r	.	.	.	.	.	.
.	.	16G	I	.	.	.	.	.
.	.	8A	was	.	.	.	.	.
=14	=14	=14	=14	=14	=14	=14	=14	=14
1E-MM	E-:maj7	8B-	cha-	1r	.	.	27.858	.
.	.	16B-	-sin'	.	.	.	.	.
.	.	[16B-	your	.	.	.	.	.
.	.	16B-]	_	.	.	.	.	.
.	.	8B-	di-	.	.	.	.	.
.	.	[16B-	-rec	.	.	(A	.	.
.	.	8B-]	_	.	.	.	.	.
.	.	8G	tion,	.	.	a)	.	.
.	.	16r	.	.	.	.	.	.
.	.	16G	I	.	.	.	.	.
.	.	8B-	was	.	.	.	.	.
=15	=15	=15	=15	=15	=15	=15	=15	=15
1DMm	D:7	8A	te-	1r	.	.	30.22	.
.	.	16A	-llin'	.	.	.	.	.
.	.	[16A	you	.	.	.	.	.
.	.	16A]	_	.	.	.	.	.
.	.	8A	no	.	.	.	.	.
.	.	[16A	lies,	.	.	B	.	.
.	.	16A]	_	.	.	.	.	.
.	.	16A	and	.	.	.	.	.
.	.	[8B-	I	.	.	B	.	.
.	.	8B-]	_	.	.	.	.	.
.	.	8A	was	.	.	.	.	.
=16	=16	=16	=16	=16	=16	=16	=16	=16
1E-MM	E-:maj7	16A	lo-	1r	.	.	32.582	newline
.	.	8G	-vin'	.	.	.	.	.
.	.	[16G	you,	.	.	.	.	.
.	.	8G]	_	.	.	.	.	.
.	.	8r	.	.	.	.	.	.
.	.	8B-	when	.	.	.	.	.
.	.	16B-	the	.	.	.	.	.
.	.	[16c	words	.	.	.	.	.
.	.	8.c]	_	.	.	.	.	.
.	.	[16B-	are	.	.	.	.	.
=17	=17	=17	=17	=17	=17	=17	=17	=17
1FM	F:maj	16B-]	_	1r	.	.	34.957	.
.	.	16G	said,	.	.	A	.	.
.	.	16F	_	.	.	.	.	.
.	.	16r	.	.	.	.	.	.
.	.	4r	.	.	.	.	.	.
.	.	8.r	.	.	.	.	.	.
.	.	[16G	ba	.	.	.	.	.
.	.	16G]	_	.	.	.	.	.
.	.	16G	by,	.	.	.	.	.
.	.	8G	I	.	.	.	.	.
=18	=18	=18	=18	=18	=18	=18	=18	=18
1Gmm	G:min7	8G	lose	1r	.	.	37.331	.
.	.	8B-	my	.	.	.	.	.
.	.	4G	head.	.	.	A	.	.
.	.	2r	.	.	.	.	.	.
=19	=19	=19	=19	=19	=19	=19	=19	=19
1Gmm	G:min7	2r	.	1r	.	.	39.706	.
.	.	8r	.	.	.	.	.	.
.	.	8d	And	.	.	.	.	.
.	.	8d	in	.	.	.	.	.
.	.	8d	a	.	.	.	.	.
=20	=20	=20	=20	=20	=20	=20	=20	=20
*>Letter>C	*>Letter>C	*>Letter>C	*>Letter>C	*>Letter>C	*>Letter>C	*>Letter>C	*>Letter>C	*>Letter>C
*>Label>Prechorus	*>Label>Prechorus	*>Label>Prechorus	*>Label>Prechorus	*>Label>Prechorus	*>Label>Prechorus	*>Label>Prechorus	*>Label>Prechorus	*>Label>Prechorus
2Cmm	C:min7	8r	.	1r	.	.	42.081	newline
.	.	8e-	world	.	.	.	.	.
.	.	8d	of	.	.	.	.	.
.	.	8cq	_	.	.	.	.	.
.	.	8d	peo	.	.	C	.	.
2FMm	F:7	8c	_	.	.	.	43.282	.
.	.	8c	ple,	.	.	.	.	.
.	.	16r	.	.	.	.	.	.
.	.	8.B-	there's	.	.	.	.	.
=21	=21	=21	=21	=21	=21	=21	=21	=21
*	*	*	*	*clefG2	*	*	*	*
2B-MM	B-:maj7	8d	on-	1r	.	.	44.484	.
.	.	16c	-ly	.	.	.	.	.
.	.	[16c	you	.	.	.	.	.
.	.	16c]	_	.	.	.	.	.
.	.	8B-	and	.	.	.	.	.
.	.	[16B-	I	.	.	B	.	.
2Gmm	G:min7	8B-]	_	.	.	.	45.685	.
.	.	8r	.	.	.	.	.	.
.	.	16r	.	.	.	.	.	.
.	.	16d	There	.	.	.	.	.
.	.	8d	ain't	.	.	.	.	.
=22	=22	=22	=22	=22	=22	=22	=22	=22
2Cmm	C:min7	16e-	no-	1r	.	.	46.886	.
.	.	8e-	-thin'	.	.	.	.	.
.	.	[16e-	come	.	.	.	.	.
.	.	8e-]	_	.	.	.	.	.
.	.	16d	be-	.	.	.	.	.
.	.	[16d	-tween	.	.	C	.	.
2DMm	D:7	16d]	_	.	.	.	48.087	.
.	.	8c	us	.	.	.	.	.
.	.	[16c	in	.	.	.	.	.
.	.	8c]	_	.	.	.	.	.
.	.	16B-	the	.	.	.	.	.
.	.	[16c	end	.	.	.	.	.
=23	=23	=23	=23	=23	=23	=23	=23	=23
1Gm	G:min	16c]	_	2r	.	.	49.288	.
.	.	8.B-	_	.	.	.	.	.
.	.	4r	.	.	.	.	.	.
.	.	2r	.	8r	.	.	.	.
.	.	.	.	[4.g [4.b- [4.dd	How	.	.	.
=24	=24	=24	=24	=24	=24	=24	=24	=24
2Cmm	C:min7	1r	.	4g] 4b-] 4dd]	_	.	51.691	newline
.	.	.	.	16g 16b- 16dd	can	.	.	.
.	.	.	.	8g 8b- 8dd	I	.	.	.
.	.	.	.	16g 16b- 16dd	hold	.	.	.
2FMm	F:7	.	.	8f 8a 8cc	_	.	52.873	.
.	.	.	.	8f 8a 8cc	you	.	.	.
.	.	.	.	8f 8a 8cc	when	.	.	.
.	.	.	.	8e- 8g 8b-	you	.	.	.
=25	=25	=25	=25	=25	=25	=25	=25	=25
2B-MM	B-:maj7	1r	.	8e- 8g 8b-	ain't	.	54.055	.
.	.	.	.	8d 8f 8a	e-	.	.	.
.	.	.	.	8d 8f 8a	-ven	.	.	.
.	.	.	.	[8d [8g [8b-	mine?	B	.	.
2Gmm	G:min7	.	.	16d] 16g] 16b-]	_	.	55.237	.
.	.	.	.	16c 16f 16a	_	.	.	.
.	.	.	.	8B- 8d 8g	_	.	.	.
.	.	.	.	4r	.	.	.	.
=26	=26	=26	=26	=26	=26	=26	=26	=26
1Cmm	C:min7	8r	.	1r	.	.	56.419	.
.	.	16c	On-	.	.	.	.	.
.	.	16c	-ly	.	.	.	.	.
.	.	16c	you	.	.	.	.	.
.	.	8.c	can	.	.	.	.	.
.	.	8d	see	.	.	.	.	.
.	.	16c	me	.	.	.	.	.
.	.	16c	through,	.	.	D	.	.
.	.	4r	.	.	.	.	.	.
=27	=27	=27	=27	=27	=27	=27	=27	=27
1DMm	D:7	8r	.	1r	.	.	58.782	.
.	.	8d	I	.	.	.	.	.
.	.	8d	leave	.	.	.	.	.
.	.	16d	it	.	.	.	.	.
.	.	16d	all	.	.	.	.	.
.	.	8c	_	.	.	.	.	.
.	.	16B-	to	.	.	.	.	.
.	.	[16c	you!	.	.	D	.	.
.	.	16c]	_	.	.	.	.	.
.	.	16B-	_	.	.	.	.	.
.	.	16G	_	.	.	.	.	.
.	.	16r	.	.	.	.	.	.
=28	=28	=28	=28	=28	=28	=28	=28	=28
*>Letter>D	*>Letter>D	*>Letter>D	*>Letter>D	*>Letter>D	*>Letter>D	*>Letter>D	*>Letter>D	*>Letter>D
*>Label>Chorus	*>Label>Chorus	*>Label>Chorus	*>Label>Chorus	*>Label>Chorus	*>Label>Chorus	*>Label>Chorus	*>Label>Chorus	*>Label>Chorus
1Gmm	G:min7	8F	Do	1r	.	.	61.146	newline
.	.	8G	it	.	.	.	.	.
.	.	8B-q	_	.	.	.	.	.
.	.	8c	light,	.	.	B	.	.
.	.	8r	.	.	.	.	.	.
.	.	8r	.	.	.	.	.	.
.	.	[8B-	ta	.	.	(G	.	.
.	.	16B-]	_	.	.	.	.	.
.	.	16G	kin'	.	.	a)	.	.
.	.	8F	me	.	.	.	.	.
=29	=29	=29	=29	=29	=29	=29	=29	=29
1Gmm	G:min7	8D	through	1r	.	.	63.514	.
.	.	8G	the	.	.	.	.	.
.	.	8G	night.	.	.	B	.	.
.	.	8r	.	.	.	.	.	.
.	.	8r	.	.	.	.	.	.
.	.	8F	Sha-	.	.	.	.	.
.	.	8G	-dow	.	.	.	.	.
.	.	8B-	dan-	.	.	.	.	.
=30	=30	=30	=30	=30	=30	=30	=30	=30
.	.	8Fq	_	.	.	.	.	.
1Gmm	G:min7	8.G	-cing,	1r	.	a	65.881	.
.	.	16F	_	.	.	.	.	.
.	.	16D	_	.	.	.	.	.
.	.	16C	_	.	.	.	.	.
.	.	8BB-	_	.	.	.	.	.
.	.	8r	.	.	.	.	.	.
.	.	[8F	ba	.	.	G	.	.
.	.	16F]	_	.	.	.	.	.
.	.	16D	by,	.	.	.	.	.
.	.	8C	you	.	.	.	.	.
=31	=31	=31	=31	=31	=31	=31	=31	=31
1Gmm	G:min7	8BB-	do	1r	.	.	68.248	.
.	.	16C	it	.	.	.	.	.
.	.	16BB-	_	.	.	.	.	.
.	.	8D	right,	.	.	B	.	.
.	.	16C	_	.	.	.	.	.
.	.	16BB-	_	.	.	.	.	.
.	.	8r	.	.	.	.	.	.
.	.	8c	uh-	.	.	.	.	.
.	.	16c	-huh!	.	.	.	.	.
.	.	16B-	_	.	.	.	.	.
.	.	8G	_	.	.	.	.	.
=32	=32	=32	=32	=32	=32	=32	=32	=32
1Gmm	G:min7	8F	Give	1r	.	.	70.616	newline
.	.	8G	me	.	.	.	.	.
.	.	8B-q	_	.	.	.	.	.
.	.	4c	more!	.	.	E	.	.
.	.	8r	.	.	.	.	.	.
.	.	16d-Q	_	.	.	.	.	.
.	.	16cQ	_	.	.	.	.	.
.	.	[8B-	Drag	.	.	.	.	.
.	.	16B-]	_	.	.	.	.	.
.	.	16G	me	.	.	.	.	.
.	.	8F	a-	.	.	.	.	.
=33	=33	=33	=33	=33	=33	=33	=33	=33
1Gmm	G:min7	8D	-cross	1r	.	.	72.921	.
.	.	8G	the	.	.	.	.	.
.	.	8G	floor!	.	.	E	.	.
.	.	8r	.	.	.	.	.	.
.	.	8r	.	.	.	.	.	.
.	.	8F	Sha-	.	.	.	.	.
.	.	8G	-dow	.	.	.	.	.
.	.	8B-	dan-	.	.	.	.	.
=34	=34	=34	=34	=34	=34	=34	=34	=34
.	.	8Fq	_	.	.	.	.	.
1Gmm	G:min7	8.G	-cing,	1r	.	a	75.227	.
.	.	16F	_	.	.	.	.	.
.	.	16D	_	.	.	.	.	.
.	.	16C	_	.	.	.	.	.
.	.	8BB-	_	.	.	.	.	.
.	.	8r	.	.	.	.	.	.
.	.	[8F	all	.	.	.	.	.
.	.	16F]	_	.	.	.	.	.
.	.	16D	this	.	.	.	.	.
.	.	8C	and	.	.	.	.	.
=35	=35	=35	=35	=35	=35	=35	=35	=35
*M2/4	*M2/4	*M2/4	*	*M2/4	*	*	*M2/4	*M2/4
2Gmm	G:min7	8BB-	no-	2r	.	.	77.532	.
.	.	16C	-thin'	.	.	a	.	.
.	.	16BB-	_	.	.	.	.	.
.	.	8D	more!	.	.	E	.	.
.	.	16C	_	.	.	.	.	.
.	.	16BB-	_	.	.	.	.	.
=36	=36	=36	=36	=36	=36	=36	=36	=36
*>Letter>A	*>Letter>A	*>Letter>A	*>Letter>A	*>Letter>A	*>Letter>A	*>Letter>A	*>Letter>A	*>Letter>A
*>Label>Interlude	*>Label>Interlude	*>Label>Interlude	*>Label>Interlude	*>Label>Interlude	*>Label>Interlude	*>Label>Interlude	*>Label>Interlude	*>Label>Interlude
8FM	F:maj	2r	.	2r	.	.	78.685	newline
4E-M	E-:maj	.	.	.	.	.	79.292	.
8DM	D:maj(9)	.	.	.	.	.	.	.
=37	=37	=37	=37	=37	=37	=37	=37	=37
*M4/4	*M4/4	*M4/4	*	*M4/4	*	*	*M4/4	*M4/4
1DM	D:maj(9)	1r	.	1r	.	.	79.9	.
=38	=38	=38	=38	=38	=38	=38	=38	=38
*M2/4	*M2/4	*M2/4	*	*M2/4	*	*	*M2/4	*M2/4
8E-M	E-:maj	2r	.	2r	.	.	82.331	.
4DM	D:maj	.	.	.	.	.	82.939	.
8Cmm	C:min7	.	.	.	.	.	.	.
=39	=39	=39	=39	=39	=39	=39	=39	=39
*M4/4	*M4/4	*M4/4	*	*M4/4	*	*	*M4/4	*M4/4
1Cmm	C:min7	1r	.	1r	.	.	83.546	.
=40	=40	=40	=40	=40	=40	=40	=40	=40
*M2/4	*M2/4	*M2/4	*	*M2/4	*	*	*M2/4	*M2/4
8Cmm	C:min7	2r	.	2r	.	.	85.977	.
4B-M	B-:maj/3	.	.	.	.	.	86.585	.
8E-M	E-:maj	.	.	.	.	.	.	.
=41	=41	=41	=41	=41	=41	=41	=41	=41
*M4/4	*M4/4	*M4/4	*	*M4/4	*	*	*M4/4	*M4/4
1E-M	E-:maj	1r	.	1r	.	.	87.193	newline
=42	=42	=42	=42	=42	=42	=42	=42	=42
1FM	F:maj	1r	.	1r	.	.	89.569	.
=43	=43	=43	=43	=43	=43	=43	=43	=43
1Gmm	G:min7	1r	.	1r	.	.	91.945	newline
=44	=44	=44	=44	=44	=44	=44	=44	=44
1Gmm	G:min7	1r	.	1r	.	.	94.319	.
=45	=45	=45	=45	=45	=45	=45	=45	=45
1Gmm	G:min7	1r	.	1r	.	.	96.692	.
=46	=46	=46	=46	=46	=46	=46	=46	=46
1Gmm	G:min7	1r	.	1r	.	.	99.066	.
=47	=47	=47	=47	=47	=47	=47	=47	=47
*>Letter>B	*>Letter>B	*>Letter>B	*>Letter>B	*>Letter>B	*>Letter>B	*>Letter>B	*>Letter>B	*>Letter>B
*>Label>Verse	*>Label>Verse	*>Label>Verse	*>Label>Verse	*>Label>Verse	*>Label>Verse	*>Label>Verse	*>Label>Verse	*>Label>Verse
1Gmm	G:min7	8r	.	1r	.	.	101.44	newline
.	.	8B-	All	.	.	.	.	.
.	.	16B-	that	.	.	.	.	.
.	.	8B-	I	.	.	.	.	.
.	.	[16B-	need	.	.	.	.	.
.	.	8B-]	_	.	.	.	.	.
.	.	8B-	is	.	.	.	.	.
.	.	8B-	just	.	.	.	.	.
.	.	8B-	one	.	.	.	.	.
=48	=48	=48	=48	=48	=48	=48	=48	=48
1FM	F:maj	8c	mo-	1r	.	.	103.794	.
.	.	16c	-ment	.	.	.	.	.
.	.	[16c	in	.	.	.	.	.
.	.	16c]	_	.	.	.	.	.
.	.	8c	your	.	.	.	.	.
.	.	16G	arms	.	.	F	.	.
.	.	8F	_	.	.	.	.	.
.	.	8r	.	.	.	.	.	.
.	.	16r	.	.	.	.	.	.
.	.	16G	I	.	.	.	.	.
.	.	8A	was	.	.	.	.	.
=49	=49	=49	=49	=49	=49	=49	=49	=49
1E-MM	E-:maj7	8B-	cha-	1r	.	.	106.148	.
.	.	16B-	-sin'	.	.	.	.	.
.	.	[16B-	your	.	.	.	.	.
.	.	16B-]	_	.	.	.	.	.
.	.	8B-	af-	.	.	.	.	.
.	.	[16B-	-ffect-	.	.	.	.	.
.	.	8B-]	_	.	.	.	.	.
.	.	8B-	-tion,	.	.	.	.	.
.	.	16r	.	.	.	.	.	.
.	.	16G	I	.	.	B	.	.
.	.	8B-	was	.	.	.	.	.
=50	=50	=50	=50	=50	=50	=50	=50	=50
1DMm	D:7	8A	do-	1r	.	.	108.502	.
.	.	16A	-in'	.	.	.	.	.
.	.	[16A	you	.	.	.	.	.
.	.	16A]	_	.	.	.	.	.
.	.	8A	no	.	.	.	.	.
.	.	[16A	harm,	.	.	F	.	.
.	.	16A]	_	.	.	.	.	.
.	.	16A	and	.	.	.	.	.
.	.	[8B-	I	.	.	B	.	.
.	.	8B-]	_	.	.	.	.	.
.	.	8A	was	.	.	.	.	.
=51	=51	=51	=51	=51	=51	=51	=51	=51
1E-MM	E-:maj7	16A	lo-	1r	.	.	110.856	newline
.	.	8G	-vin'	.	.	.	.	.
.	.	[16G	you,	.	.	.	.	.
.	.	8G]	_	.	.	.	.	.
.	.	8r	.	.	.	.	.	.
.	.	12B-	make	.	.	.	.	.
.	.	12G	it	.	.	.	.	.
.	.	[12c	shine,	.	.	B	.	.
.	.	8c]	_	.	.	.	.	.
.	.	8c	make	.	.	.	.	.
=52	=52	=52	=52	=52	=52	=52	=52	=52
1FM	F:maj	8c	it	1r	.	.	113.229	.
.	.	16G	rain	.	.	G	.	.
.	.	[16F	_	.	.	.	.	.
.	.	8F]	_	.	.	.	.	.
.	.	8r	.	.	.	.	.	.
.	.	8.r	.	.	.	.	.	.
.	.	[16G	Ba	.	.	G	.	.
.	.	16G]	_	.	.	.	.	.
.	.	16G	by,	.	.	.	.	.
.	.	8G	I	.	.	.	.	.
=53	=53	=53	=53	=53	=53	=53	=53	=53
1Gmm	G:min7	8G	know	1r	.	.	115.603	.
.	.	8B-	my	.	.	.	.	.
.	.	4G	way.	.	.	G	.	.
.	.	2r	.	.	.	.	.	.
=54	=54	=54	=54	=54	=54	=54	=54	=54
1Gmm	G:min7	2r	.	1r	.	.	117.976	.
.	.	8r	.	.	.	.	.	.
.	.	8d	I	.	.	.	.	.
.	.	8d	need	.	.	.	.	.
.	.	8d	that	.	.	.	.	.
=55	=55	=55	=55	=55	=55	=55	=55	=55
*>Letter>C	*>Letter>C	*>Letter>C	*>Letter>C	*>Letter>C	*>Letter>C	*>Letter>C	*>Letter>C	*>Letter>C
*>Label>Prechorus	*>Label>Prechorus	*>Label>Prechorus	*>Label>Prechorus	*>Label>Prechorus	*>Label>Prechorus	*>Label>Prechorus	*>Label>Prechorus	*>Label>Prechorus
2Cmm	C:min7	8r	.	1r	.	.	120.35	newline
.	.	8e-	sweet	.	.	.	.	.
.	.	8e-	sen-	.	.	.	.	.
.	.	[8f	-sa	.	.	G	.	.
2FMm	F:7	8f]	_	.	.	.	121.544	.
.	.	8cq	_	.	.	.	.	.
.	.	8d	tion,	.	.	.	.	.
.	.	16r	.	.	.	.	.	.
.	.	8.c	of	.	.	.	.	.
=56	=56	=56	=56	=56	=56	=56	=56	=56
2B-MM	B-:maj7	8d	li-	1r	.	.	122.739	.
.	.	16c	-vin'	.	.	.	.	.
.	.	[16c	in	.	.	.	.	.
.	.	16c]	_	.	.	.	.	.
.	.	8B-	your	.	.	.	.	.
.	.	[16B-	love	.	.	.	.	.
2Gmm	G:min7	8B-]	_	.	.	.	123.933	.
.	.	8r	.	.	.	.	.	.
.	.	16r	.	.	.	.	.	.
.	.	16d	I	.	.	.	.	.
.	.	8d	can't	.	.	.	.	.
=57	=57	=57	=57	=57	=57	=57	=57	=57
2Cmm	C:min7	16e-	breathe	1r	.	.	125.128	.
.	.	8d	when	.	.	.	.	.
.	.	[16d	you're	.	.	.	.	.
.	.	8d]	_	.	.	.	.	.
.	.	16c	a-	.	.	.	.	.
.	.	[16d	-way,	.	.	G	.	.
2DMm	D:7	16d]	_	.	.	.	126.322	.
.	.	8c	it	.	.	.	.	.
.	.	[16d	pulls	.	.	.	.	.
.	.	8d]	_	.	.	.	.	.
.	.	16B-	me	.	.	.	.	.
.	.	[16c	down	.	.	.	.	.
=58	=58	=58	=58	=58	=58	=58	=58	=58
1Gm	G:min	16c]	_	2r	.	.	127.517	.
.	.	16B-	_	.	.	.	.	.
.	.	8G	_	.	.	.	.	.
.	.	4r	.	.	.	.	.	.
.	.	2r	.	8r	.	.	.	.
.	.	.	.	[4.g [4.b- [4.dd	Oh,	.	.	.
=59	=59	=59	=59	=59	=59	=59	=59	=59
2Cmm	C:min7	1r	.	4g] 4b-] 4dd]	_	.	129.906	newline
.	.	.	.	16g 16b- 16dd	you	.	.	.
.	.	.	.	8g 8b- 8dd	are	.	.	.
.	.	.	.	16g 16b- 16dd	the	.	.	.
.	.	.	.	8f 8a 8cc	ques-	.	.	.
2FMm	F:7	.	.	8f 8a 8cc	-tion	.	131.097	.
.	.	.	.	8f 8a 8cc	and	.	.	.
.	.	.	.	8e- 8g 8b-	the	.	.	.
=60	=60	=60	=60	=60	=60	=60	=60	=60
2B-MM	B-:maj7	1r	.	8e- 8g 8b-	an-	.	132.288	.
.	.	.	.	8d 8f 8a	-swer	.	.	.
.	.	.	.	8d 8f 8a	am	.	.	.
.	.	.	.	[8d [8g [8b-	I!	B	.	.
2Gmm	G:min7	.	.	16d] 16g] 16b-]	_	.	133.478	.
.	.	.	.	16c 16f 16a	_	.	.	.
.	.	.	.	8B- 8d 8g	_	.	.	.
.	.	.	.	4r	.	.	.	.
=61	=61	=61	=61	=61	=61	=61	=61	=61
1Cmm	C:min7	8r	.	1r	.	.	134.669	.
.	.	16c	On-	.	.	.	.	.
.	.	16c	-ly	.	.	.	.	.
.	.	16c	you	.	.	.	.	.
.	.	8.c	can	.	.	.	.	.
.	.	8d	see	.	.	.	.	.
.	.	16c	me	.	.	.	.	.
.	.	16c	through!	.	.	D	.	.
.	.	4r	.	.	.	.	.	.
=62	=62	=62	=62	=62	=62	=62	=62	=62
1DMm	D:7	8r	.	1r	.	.	137.051	.
.	.	8d	I	.	.	.	.	.
.	.	8d	leave	.	.	.	.	.
.	.	16d	it	.	.	.	.	.
.	.	16d	up	.	.	.	.	.
.	.	8c	_	.	.	.	.	.
.	.	16B-	to	.	.	.	.	.
.	.	[16c	you!	.	.	D	.	.
.	.	16c]	_	.	.	.	.	.
.	.	16B-	_	.	.	.	.	.
.	.	16G	_	.	.	.	.	.
.	.	16r	.	.	.	.	.	.
=63	=63	=63	=63	=63	=63	=63	=63	=63
*>Letter>D	*>Letter>D	*>Letter>D	*>Letter>D	*>Letter>D	*>Letter>D	*>Letter>D	*>Letter>D	*>Letter>D
*>Label>Chorus	*>Label>Chorus	*>Label>Chorus	*>Label>Chorus	*>Label>Chorus	*>Label>Chorus	*>Label>Chorus	*>Label>Chorus	*>Label>Chorus
1Gmm	G:min7	8F	Do	1r	.	.	139.433	newline
.	.	8G	it	.	.	.	.	.
.	.	8B-q	_	.	.	.	.	.
.	.	8c	light,	.	.	B	.	.
.	.	8r	.	.	.	.	.	.
.	.	8r	.	.	.	.	.	.
.	.	[8B-	ta	.	.	(G	.	.
.	.	16B-]	_	.	.	.	.	.
.	.	16G	kin'	.	.	a)	.	.
.	.	8F	me	.	.	.	.	.
=64	=64	=64	=64	=64	=64	=64	=64	=64
1Gmm	G:min7	8D	through	1r	.	.	141.808	.
.	.	8G	the	.	.	.	.	.
.	.	8G	night.	.	.	B	.	.
.	.	8r	.	.	.	.	.	.
.	.	8r	.	.	.	.	.	.
.	.	8F	Sha-	.	.	.	.	.
.	.	8G	-dow	.	.	.	.	.
.	.	8B-	dan-	.	.	.	.	.
=65	=65	=65	=65	=65	=65	=65	=65	=65
.	.	8Fq	_	.	.	.	.	.
1Gmm	G:min7	8.G	-cing,	1r	.	a	144.184	.
.	.	16F	_	.	.	.	.	.
.	.	16D	_	.	.	.	.	.
.	.	16C	_	.	.	.	.	.
.	.	8BB-	_	.	.	.	.	.
.	.	8r	.	.	.	.	.	.
.	.	[8F	ba	.	.	G	.	.
.	.	16F]	_	.	.	.	.	.
.	.	16D	by,	.	.	.	.	.
.	.	8C	you	.	.	.	.	.
=66	=66	=66	=66	=66	=66	=66	=66	=66
1Gmm	G:min7	8BB-	do	1r	.	.	146.559	.
.	.	16C	it	.	.	.	.	.
.	.	16BB-	_	.	.	.	.	.
.	.	8D	right,	.	.	B	.	.
.	.	16C	_	.	.	.	.	.
.	.	16BB-	_	.	.	.	.	.
.	.	8r	.	.	.	.	.	.
.	.	8c	uh-	.	.	.	.	.
.	.	16c	-huh!	.	.	.	.	.
.	.	16B-	_	.	.	.	.	.
.	.	8G	_	.	.	.	.	.
=67	=67	=67	=67	=67	=67	=67	=67	=67
1Gmm	G:min7	8F	Give	1r	.	.	148.934	newline
.	.	8G	me	.	.	.	.	.
.	.	8B-q	_	.	.	.	.	.
.	.	4c	more!	.	.	E	.	.
.	.	8r	.	.	.	.	.	.
.	.	16d-Q	_	.	.	.	.	.
.	.	16cQ	_	.	.	.	.	.
.	.	[8B-	Drag	.	.	.	.	.
.	.	16B-]	_	.	.	.	.	.
.	.	16G	me	.	.	.	.	.
.	.	8F	a-	.	.	.	.	.
=68	=68	=68	=68	=68	=68	=68	=68	=68
1Gmm	G:min7	8D	-cross	1r	.	.	151.281	.
.	.	8G	the	.	.	.	.	.
.	.	8G	floor!	.	.	E	.	.
.	.	8r	.	.	.	.	.	.
.	.	8r	.	.	.	.	.	.
.	.	8F	Sha-	.	.	.	.	.
.	.	8G	-dow	.	.	.	.	.
.	.	8B-	dan-	.	.	.	.	.
=69	=69	=69	=69	=69	=69	=69	=69	=69
.	.	8Fq	_	.	.	.	.	.
1Gmm	G:min7	8.G	-cing,	1r	.	a	153.628	.
.	.	16F	_	.	.	.	.	.
.	.	16D	_	.	.	.	.	.
.	.	16C	_	.	.	.	.	.
.	.	8BB-	_	.	.	.	.	.
.	.	8r	.	.	.	.	.	.
.	.	[8F	all	.	.	.	.	.
.	.	16F]	_	.	.	.	.	.
.	.	16D	this	.	.	.	.	.
.	.	8C	and	.	.	.	.	.
=70	=70	=70	=70	=70	=70	=70	=70	=70
1Gmm	G:min7	8BB-	no-	1r	.	.	155.975	.
.	.	16C	-thin'	.	.	a	.	.
.	.	16BB-	_	.	.	.	.	.
.	.	8D	more!	.	.	E	.	.
.	.	16C	_	.	.	.	.	.
.	.	16BB-	_	.	.	.	.	.
.	.	8r	.	.	.	.	.	.
.	.	8d	And	.	.	.	.	.
.	.	8d	in	.	.	.	.	.
.	.	8d	this	.	.	.	.	.
=71	=71	=71	=71	=71	=71	=71	=71	=71
*>Letter>C	*>Letter>C	*>Letter>C	*>Letter>C	*>Letter>C	*>Letter>C	*>Letter>C	*>Letter>C	*>Letter>C
*>Label>Prechorus	*>Label>Prechorus	*>Label>Prechorus	*>Label>Prechorus	*>Label>Prechorus	*>Label>Prechorus	*>Label>Prechorus	*>Label>Prechorus	*>Label>Prechorus
2Cmm	C:min7	8r	.	1r	.	.	158.322	newline
.	.	8e-	world	.	.	.	.	.
.	.	8e-	of	.	.	.	.	.
.	.	8f	peo	.	.	C	.	.
.	.	8cq	_	.	.	.	.	.
2FMm	F:7	8d	ple,	.	.	.	159.498	.
.	.	8r	.	.	.	.	.	.
.	.	16r	.	.	.	.	.	.
.	.	8f	there's	.	.	.	.	.
.	.	[16f	on	.	.	.	.	.
=72	=72	=72	=72	=72	=72	=72	=72	=72
2B-MM	B-:maj7	16f]	_	1r	.	.	160.675	.
.	.	8d	ly	.	.	.	.	.
.	.	[16d	you	.	.	.	.	.
.	.	16d]	_	.	.	.	.	.
.	.	8c	and	.	.	.	.	.
.	.	8dq	_	.	.	.	.	.
.	.	[16c	I!	.	.	B	.	.
2Gmm	G:min7	16c]	_	.	.	.	161.851	.
.	.	8.B-	_	.	.	.	.	.
.	.	16r	.	.	.	.	.	.
.	.	16d	There	.	.	.	.	.
.	.	8d	ain't	.	.	.	.	.
=73	=73	=73	=73	=73	=73	=73	=73	=73
2Cmm	C:min7	16e-	no-	1r	.	.	163.028	.
.	.	8e-	-thin'	.	.	.	.	.
.	.	[16e-	come	.	.	.	.	.
.	.	16e-]	_	.	.	.	.	.
.	.	8d	be-	.	.	.	.	.
.	.	[16d	-tween	.	.	C	.	.
2DMm	D:7	16d]	_	.	.	.	164.204	.
.	.	8c	us	.	.	.	.	.
.	.	8cq	_	.	.	.	.	.
.	.	[16d	in	.	.	.	.	.
.	.	8d]	_	.	.	.	.	.
.	.	16c	the	.	.	.	.	.
.	.	[16c	end!	.	.	.	.	.
=74	=74	=74	=74	=74	=74	=74	=74	=74
1Gm	G:min	16c]	_	4r	.	.	165.381	.
.	.	16B-	_	.	.	.	.	.
.	.	8G	_	.	.	.	.	.
.	.	4r	.	8r	.	.	.	.
.	.	.	.	[8g [8b- [8dd	How	.	.	.
.	.	2r	.	2g_ 2b-_ 2dd_	_	.	.	.
=75	=75	=75	=75	=75	=75	=75	=75	=75
2Cmm	C:min7	1r	.	4g] 4b-] 4dd]	_	.	167.734	newline
.	.	.	.	16g 16b- 16dd	can	.	.	.
.	.	.	.	8g 8b- 8dd	I	.	.	.
.	.	.	.	16g 16b- 16dd	hold	.	.	.
2FMm	F:7	.	.	8f 8a 8cc	_	.	168.901	.
.	.	.	.	8f 8a 8cc	you	.	.	.
.	.	.	.	8f 8a 8cc	when	.	.	.
.	.	.	.	8e- 8g 8b-	you	.	.	.
=76	=76	=76	=76	=76	=76	=76	=76	=76
2B-MM	B-:maj7	1r	.	8e- 8g 8b-	ain't	.	170.068	.
.	.	.	.	8d 8f 8a	e-	.	.	.
.	.	.	.	8d 8f 8a	-ven	.	.	.
.	.	.	.	[8d [8g [8b-	mine?	B	.	.
2Gmm	G:min7	.	.	16d] 16g] 16b-]	_	.	171.236	.
.	.	.	.	16c 16f 16a	_	.	.	.
.	.	.	.	8B- 8d 8g	_	.	.	.
.	.	.	.	4r	.	.	.	.
=77	=77	=77	=77	=77	=77	=77	=77	=77
1Cmm	C:min7	8r	.	1r	.	.	172.403	.
.	.	16c	On-	.	.	.	.	.
.	.	16c	-ly	.	.	.	.	.
.	.	16c	you	.	.	.	.	.
.	.	8.c	can	.	.	.	.	.
.	.	8d	see	.	.	.	.	.
.	.	16c	me	.	.	.	.	.
.	.	16c	through!	.	.	D	.	.
.	.	4r	.	.	.	.	.	.
=78	=78	=78	=78	=78	=78	=78	=78	=78
1DMm	D:7	8r	.	1r	.	.	174.738	.
.	.	8d	I	.	.	.	.	.
.	.	8d	leave	.	.	.	.	.
.	.	16d	it	.	.	.	.	.
.	.	16d	up	.	.	.	.	.
.	.	8c	_	.	.	.	.	.
.	.	16B-	to	.	.	.	.	.
.	.	[16c	you!	.	.	D	.	.
.	.	16c]	_	.	.	.	.	.
.	.	16B-	_	.	.	.	.	.
.	.	8r	.	.	.	.	.	.
=79	=79	=79	=79	=79	=79	=79	=79	=79
1DMm	D:7	8r	.	1r	.	.	177.072	.
.	.	[4.d	Oh!	.	.	.	.	.
.	.	8d]	_	.	.	.	.	.
.	.	16c	_	.	.	.	.	.
.	.	16B-	_	.	.	.	.	.
.	.	8r	.	.	.	.	.	.
.	.	16G	Uh!	.	.	.	.	.
.	.	16B-	_	.	.	.	.	.
=80	=80	=80	=80	=80	=80	=80	=80	=80
*>Letter>D2	*>Letter>D2	*>Letter>D2	*>Letter>D2	*>Letter>D2	*>Letter>D2	*>Letter>D2	*>Letter>D2	*>Letter>D2
*>Label>Chorus	*>Label>Chorus	*>Label>Chorus	*>Label>Chorus	*>Label>Chorus	*>Label>Chorus	*>Label>Chorus	*>Label>Chorus	*>Label>Chorus
1Gm	G:1	8F	Do	1r	.	.	179.407	newline
.	.	8G	it	.	.	.	.	.
.	.	8B-q	_	.	.	.	.	.
.	.	8c	light,	.	.	B	.	.
.	.	8r	.	.	.	.	.	.
.	.	8r	.	.	.	.	.	.
.	.	[8B-	ta	.	.	(G	.	.
.	.	16B-]	_	.	.	.	.	.
.	.	16G	kin'	.	.	a)	.	.
.	.	8F	me	.	.	.	.	.
=81	=81	=81	=81	=81	=81	=81	=81	=81
1Gm	G:1	8D	through	1r	.	.	181.758	.
.	.	8G	the	.	.	.	.	.
.	.	8G	night.	.	.	B	.	.
.	.	8r	.	.	.	.	.	.
.	.	8r	.	.	.	.	.	.
.	.	8F	Sha-	.	.	.	.	.
.	.	8G	-dow	.	.	.	.	.
.	.	8B-	dan-	.	.	.	.	.
=82	=82	=82	=82	=82	=82	=82	=82	=82
.	.	8Fq	_	.	.	.	.	.
1Gm	G:1	8.G	-cing,	1r	.	a	184.108	.
.	.	16F	_	.	.	.	.	.
.	.	16D	_	.	.	.	.	.
.	.	16C	_	.	.	.	.	.
.	.	8BB-	_	.	.	.	.	.
.	.	8r	.	.	.	.	.	.
.	.	[8F	ba	.	.	G	.	.
.	.	16F]	_	.	.	.	.	.
.	.	16D	by,	.	.	.	.	.
.	.	8C	you	.	.	.	.	.
=83	=83	=83	=83	=83	=83	=83	=83	=83
1Gm	G:1	8BB-	do	1r	.	.	186.459	.
.	.	16C	it	.	.	.	.	.
.	.	16BB-	_	.	.	.	.	.
.	.	8D	right,	.	.	B	.	.
.	.	16C	_	.	.	.	.	.
.	.	16BB-	_	.	.	.	.	.
.	.	8r	.	.	.	.	.	.
.	.	8c	uh-	.	.	.	.	.
.	.	16c	-huh!	.	.	.	.	.
.	.	16B-	_	.	.	.	.	.
.	.	8G	_	.	.	.	.	.
=84	=84	=84	=84	=84	=84	=84	=84	=84
1Gm	G:1	8F	Give	1r	.	.	188.81	newline
.	.	8G	me	.	.	.	.	.
.	.	8B-q	_	.	.	.	.	.
.	.	4c	more!	.	.	E	.	.
.	.	8r	.	.	.	.	.	.
.	.	16d-Q	_	.	.	.	.	.
.	.	16cQ	_	.	.	.	.	.
.	.	[8B-	Drag	.	.	.	.	.
.	.	16B-]	_	.	.	.	.	.
.	.	16G	me	.	.	.	.	.
.	.	8F	a-	.	.	.	.	.
=85	=85	=85	=85	=85	=85	=85	=85	=85
1Gm	G:1	8D	-cross	1r	.	.	191.147	.
.	.	8G	the	.	.	.	.	.
.	.	8G	floor!	.	.	E	.	.
.	.	8r	.	.	.	.	.	.
.	.	8r	.	.	.	.	.	.
.	.	8F	Sha-	.	.	.	.	.
.	.	8G	-dow	.	.	.	.	.
.	.	8B-	dan-	.	.	.	.	.
=86	=86	=86	=86	=86	=86	=86	=86	=86
.	.	8Fq	_	.	.	.	.	.
1Gm	G:1	8.G	-cing,	1r	.	a	193.485	.
.	.	16F	_	.	.	.	.	.
.	.	16D	_	.	.	.	.	.
.	.	16C	_	.	.	.	.	.
.	.	8BB-	_	.	.	.	.	.
.	.	8r	.	.	.	.	.	.
.	.	[8F	all	.	.	.	.	.
.	.	16F]	_	.	.	.	.	.
.	.	16D	this	.	.	.	.	.
.	.	8C	and	.	.	.	.	.
=87	=87	=87	=87	=87	=87	=87	=87	=87
1Gm	G:1	8BB-	no-	1r	.	.	195.822	.
.	.	16C	-thin'	.	.	a	.	.
.	.	16BB-	_	.	.	.	.	.
.	.	8D	more!	.	.	E	.	.
.	.	16C	_	.	.	.	.	.
.	.	16BB-	_	.	.	.	.	.
.	.	2r	.	.	.	.	.	.
=88	=88	=88	=88	=88	=88	=88	=88	=88
*>Letter>D	*>Letter>D	*>Letter>D	*>Letter>D	*>Letter>D	*>Letter>D	*>Letter>D	*>Letter>D	*>Letter>D
*>Label>Chorus	*>Label>Chorus	*>Label>Chorus	*>Label>Chorus	*>Label>Chorus	*>Label>Chorus	*>Label>Chorus	*>Label>Chorus	*>Label>Chorus
1Gmm	G:min7	8F	Do	1r	.	.	198.16	newline
.	.	8G	it	.	.	.	.	.
.	.	8B-q	_	.	.	.	.	.
.	.	8c	light,	.	.	B	.	.
.	.	8r	.	.	.	.	.	.
.	.	8r	.	.	.	.	.	.
.	.	[8B-	ta	.	.	G	.	.
.	.	16B-]	_	.	.	.	.	.
.	.	16G	kin'	.	.	.	.	.
.	.	8F	me	.	.	.	.	.
=89	=89	=89	=89	=89	=89	=89	=89	=89
1Gmm	G:min7	8D	through	1r	.	.	200.497	.
.	.	8G	the	.	.	.	.	.
.	.	8G	night.	.	.	B	.	.
.	.	8r	.	.	.	.	.	.
.	.	8r	.	.	.	.	.	.
.	.	8F	Sha-	.	.	.	.	.
.	.	8G	-dow	.	.	.	.	.
.	.	8B-	dan-	.	.	.	.	.
=90	=90	=90	=90	=90	=90	=90	=90	=90
.	.	8Fq	_	.	.	.	.	.
1Gmm	G:min7	8.G	-cing,	1r	.	a	202.835	.
.	.	16F	_	.	.	.	.	.
.	.	16D	_	.	.	.	.	.
.	.	16C	_	.	.	.	.	.
.	.	8BB-	_	.	.	.	.	.
.	.	8r	.	.	.	.	.	.
.	.	[8F	ba	.	.	G	.	.
.	.	16F]	_	.	.	.	.	.
.	.	16D	by,	.	.	.	.	.
.	.	8C	you	.	.	.	.	.
=91	=91	=91	=91	=91	=91	=91	=91	=91
1Gmm	G:min7	8BB-	do	1r	.	.	205.172	.
.	.	16C	it	.	.	.	.	.
.	.	16BB-	_	.	.	.	.	.
.	.	8D	right,	.	.	B	.	.
.	.	16C	_	.	.	.	.	.
.	.	16BB-	_	.	.	.	.	.
.	.	8r	.	.	.	.	.	.
.	.	8c	uh-	.	.	.	.	.
.	.	16c	-huh!	.	.	.	.	.
.	.	16B-	_	.	.	.	.	.
.	.	8G	_	.	.	.	.	.
=92	=92	=92	=92	=92	=92	=92	=92	=92
1Gmm	G:min7	8F	Give	1r	.	.	207.509	newline
.	.	8G	me	.	.	.	.	.
.	.	8B-q	_	.	.	.	.	.
.	.	4c	more!	.	.	E	.	.
.	.	8r	.	.	.	.	.	.
.	.	16d-Q	_	.	.	.	.	.
.	.	16cQ	_	.	.	.	.	.
.	.	[8B-	Drag	.	.	.	.	.
.	.	16B-]	_	.	.	.	.	.
.	.	16G	me	.	.	.	.	.
.	.	8F	a-	.	.	.	.	.
=93	=93	=93	=93	=93	=93	=93	=93	=93
1Gmm	G:min7	8D	-cross	1r	.	.	209.846	.
.	.	8G	the	.	.	.	.	.
.	.	8G	floor!	.	.	E	.	.
.	.	8r	.	.	.	.	.	.
.	.	8r	.	.	.	.	.	.
.	.	8F	Sha-	.	.	.	.	.
.	.	8G	-dow	.	.	.	.	.
.	.	8B-	dan-	.	.	.	.	.
=94	=94	=94	=94	=94	=94	=94	=94	=94
.	.	8Fq	_	.	.	.	.	.
1Gmm	G:min7	8.G	-cing,	1r	.	a	212.182	.
.	.	16F	_	.	.	.	.	.
.	.	16D	_	.	.	.	.	.
.	.	16C	_	.	.	.	.	.
.	.	8BB-	_	.	.	.	.	.
.	.	8r	.	.	.	.	.	.
.	.	[8F	all	.	.	.	.	.
.	.	16F]	_	.	.	.	.	.
.	.	16D	this	.	.	.	.	.
.	.	8C	and	.	.	.	.	.
=95	=95	=95	=95	=95	=95	=95	=95	=95
1Gmm	G:min7	8BB-	no-	1r	.	.	214.519	.
.	.	16C	-thin'	.	.	a	.	.
.	.	16BB-	_	.	.	.	.	.
.	.	8D	more!	.	.	E	.	.
.	.	16C	_	.	.	.	.	.
.	.	16BB-	_	.	.	.	.	.
.	.	2r	.	.	.	.	.	.
=96	=96	=96	=96	=96	=96	=96	=96	=96
*>Letter>D	*>Letter>D	*>Letter>D	*>Letter>D	*>Letter>D	*>Letter>D	*>Letter>D	*>Letter>D	*>Letter>D
*>Label>Chorus	*>Label>Chorus	*>Label>Chorus	*>Label>Chorus	*>Label>Chorus	*>Label>Chorus	*>Label>Chorus	*>Label>Chorus	*>Label>Chorus
1Gmm	G:min7	8F	Do	1r	.	.	216.855	newline
.	.	8G	it	.	.	.	.	.
.	.	8B-q	_	.	.	.	.	.
.	.	8c	light,	.	.	B	.	.
.	.	8r	.	.	.	.	.	.
.	.	8r	.	.	.	.	.	.
.	.	[8B-	ta	.	.	(G	.	.
.	.	16B-]	_	.	.	.	.	.
.	.	16G	kin'	.	.	a)	.	.
.	.	8F	me	.	.	.	.	.
=97	=97	=97	=97	=97	=97	=97	=97	=97
1Gmm	G:min7	8D	through	1r	.	.	219.195	.
.	.	8G	the	.	.	.	.	.
.	.	8G	night.	.	.	B	.	.
.	.	8r	.	.	.	.	.	.
.	.	8r	.	.	.	.	.	.
.	.	8F	Sha-	.	.	.	.	.
.	.	8G	-dow	.	.	.	.	.
.	.	8B-	dan-	.	.	.	.	.
=98	=98	=98	=98	=98	=98	=98	=98	=98
.	.	8Fq	_	.	.	.	.	.
1Gmm	G:min7	8.G	-cing,	1r	.	a	221.535	.
.	.	16F	_	.	.	.	.	.
.	.	16D	_	.	.	.	.	.
.	.	16C	_	.	.	.	.	.
.	.	8BB-	_	.	.	.	.	.
.	.	8r	.	.	.	.	.	.
.	.	[8F	ba	.	.	G	.	.
.	.	16F]	_	.	.	.	.	.
.	.	16D	by,	.	.	.	.	.
.	.	8C	you	.	.	.	.	.
=99	=99	=99	=99	=99	=99	=99	=99	=99
1Gmm	G:min7	8BB-	do	1r	.	.	223.875	.
.	.	16C	it	.	.	.	.	.
.	.	16BB-	_	.	.	.	.	.
.	.	8D	right,	.	.	B	.	.
.	.	16C	_	.	.	.	.	.
.	.	16BB-	_	.	.	.	.	.
.	.	16r	.	.	.	.	.	.
.	.	8.c	Uh-	.	.	.	.	.
.	.	8c	-huh!	.	.	.	.	.
.	.	16B-	_	.	.	.	.	.
.	.	16G	_	.	.	.	.	.
=100	=100	=100	=100	=100	=100	=100	=100	=100
1Gmm	G:min7	8F	Give	1r	.	.	226.215	newline
.	.	8G	me	.	.	.	.	.
.	.	8B-q	_	.	.	.	.	.
.	.	4c	more!	.	.	E	.	.
.	.	8r	.	.	.	.	.	.
.	.	16d-Q	_	.	.	.	.	.
.	.	16cQ	_	.	.	.	.	.
.	.	[8B-	Drag	.	.	.	.	.
.	.	16B-]	_	.	.	.	.	.
.	.	16G	me	.	.	.	.	.
.	.	8F	a-	.	.	.	.	.
=101	=101	=101	=101	=101	=101	=101	=101	=101
1Gmm	G:min7	8D	-cross	1r	.	.	228.537	.
.	.	8G	the	.	.	.	.	.
.	.	8G	floor!	.	.	E	.	.
.	.	8r	.	.	.	.	.	.
.	.	8r	.	.	.	.	.	.
.	.	8F	Sha-	.	.	.	.	.
.	.	8G	-dow	.	.	.	.	.
.	.	8B-	dan-	.	.	.	.	.
=102	=102	=102	=102	=102	=102	=102	=102	=102
.	.	8Fq	_	.	.	.	.	.
1Gmm	G:min7	8.G	-cing,	1r	.	a	230.859	.
.	.	16F	_	.	.	.	.	.
.	.	16D	_	.	.	.	.	.
.	.	16C	_	.	.	.	.	.
.	.	8BB-	_	.	.	.	.	.
.	.	8r	.	.	.	.	.	.
.	.	[8F	all	.	.	.	.	.
.	.	16F]	_	.	.	.	.	.
.	.	16D	this	.	.	.	.	.
.	.	8C	and	.	.	.	.	.
=103	=103	=103	=103	=103	=103	=103	=103	=103
1Gmm	G:min7	8BB-	no-	1r	.	.	233.18	.
.	.	16C	-thin'	.	.	a	.	.
.	.	16BB-	_	.	.	.	.	.
.	.	8D	more!	.	.	E	.	.
.	.	16C	_	.	.	.	.	.
.	.	16BB-	_	.	.	.	.	.
.	.	2r	.	.	.	.	.	.
=104	=104	=104	=104	=104	=104	=104	=104	=104
*>Letter>D	*>Letter>D	*>Letter>D	*>Letter>D	*>Letter>D	*>Letter>D	*>Letter>D	*>Letter>D	*>Letter>D
*>Label>Chorus	*>Label>Chorus	*>Label>Chorus	*>Label>Chorus	*>Label>Chorus	*>Label>Chorus	*>Label>Chorus	*>Label>Chorus	*>Label>Chorus
1Gmm	G:min7	8F	Do	1r	.	.	235.502	newline
.	.	8G	it	.	.	.	.	.
.	.	8B-q	_	.	.	.	.	.
.	.	8c	light,	.	.	B	.	.
.	.	8r	.	.	.	.	.	.
.	.	8r	.	.	.	.	.	.
.	.	[8B-	ta	.	.	(G	.	.
.	.	16B-]	_	.	.	.	.	.
.	.	16G	kin'	.	.	a)	.	.
.	.	8F	me	.	.	.	.	.
=105	=105	=105	=105	=105	=105	=105	=105	=105
1Gmm	G:min7	8D	through	1r	.	.	237.836	.
.	.	8G	the	.	.	.	.	.
.	.	8G	night.	.	.	B	.	.
.	.	8r	.	.	.	.	.	.
.	.	8r	.	.	.	.	.	.
.	.	8F	Sha-	.	.	.	.	.
.	.	8G	-dow	.	.	.	.	.
.	.	8B-	dan-	.	.	.	.	.
=106	=106	=106	=106	=106	=106	=106	=106	=106
.	.	8Fq	_	.	.	.	.	.
1Gmm	G:min7	8.G	-cing,	1r	.	a	240.169	.
.	.	16F	_	.	.	.	.	.
.	.	16D	_	.	.	.	.	.
.	.	16C	_	.	.	.	.	.
.	.	8BB-	_	.	.	.	.	.
.	.	8r	.	.	.	.	.	.
.	.	[8F	ba	.	.	G	.	.
.	.	16F]	_	.	.	.	.	.
.	.	16D	by,	.	.	.	.	.
.	.	8C	you	.	.	.	.	.
=107	=107	=107	=107	=107	=107	=107	=107	=107
1Gmm	G:min7	8BB-	do	1r	.	.	242.503	.
.	.	16C	it	.	.	.	.	.
.	.	16BB-	_	.	.	.	.	.
.	.	8D	right,	.	.	B	.	.
.	.	16C	_	.	.	.	.	.
.	.	16BB-	_	.	.	.	.	.
.	.	8r	.	.	.	.	.	.
.	.	8c	uh-	.	.	.	.	.
.	.	16c	-huh!	.	.	.	.	.
.	.	16B-	_	.	.	.	.	.
.	.	8G	_	.	.	.	.	.
=108	=108	=108	=108	=108	=108	=108	=108	=108
1Gmm	G:min7	8F	Give	1r	.	.	244.837	newline
.	.	8G	me	.	.	.	.	.
.	.	8B-q	_	.	.	.	.	.
.	.	4c	more!	.	.	E	.	.
.	.	8r	.	.	.	.	.	.
.	.	16d-Q	_	.	.	.	.	.
.	.	16cQ	_	.	.	.	.	.
.	.	[8B-	Drag	.	.	.	.	.
.	.	16B-]	_	.	.	.	.	.
.	.	16G	me	.	.	.	.	.
.	.	8F	a-	.	.	.	.	.
=109	=109	=109	=109	=109	=109	=109	=109	=109
1Gmm	G:min7	8D	-cross	1r	.	.	247.187	.
.	.	8G	the	.	.	.	.	.
.	.	8G	floor!	.	.	E	.	.
.	.	8r	.	.	.	.	.	.
.	.	8r	.	.	.	.	.	.
.	.	8F	Sha-	.	.	.	.	.
.	.	8G	-dow	.	.	.	.	.
.	.	8B-	dan-	.	.	.	.	.
=110	=110	=110	=110	=110	=110	=110	=110	=110
.	.	8Fq	_	.	.	.	.	.
1Gmm	G:min7	8.G	-cing,	1r	.	a	249.536	.
.	.	16F	_	.	.	.	.	.
.	.	16D	_	.	.	.	.	.
.	.	16C	_	.	.	.	.	.
.	.	8BB-	_	.	.	.	.	.
.	.	8r	.	.	.	.	.	.
.	.	[8F	all	.	.	.	.	.
.	.	16F]	_	.	.	.	.	.
.	.	16D	this	.	.	.	.	.
.	.	8C	and	.	.	.	.	.
=111	=111	=111	=111	=111	=111	=111	=111	=111
1Gmm	G:min7	8BB-	no-	1r	.	.	251.886	.
.	.	16C	-thin'	.	.	a	.	.
.	.	16BB-	_	.	.	.	.	.
.	.	8D	more!	.	.	E	.	.
.	.	16C	_	.	.	.	.	.
.	.	16BB-	_	.	.	.	.	.
.	.	2r	.	.	.	.	.	.
=112	=112	=112	=112	=112	=112	=112	=112	=112
*>Letter>D	*>Letter>D	*>Letter>D	*>Letter>D	*>Letter>D	*>Letter>D	*>Letter>D	*>Letter>D	*>Letter>D
*>Label>Fadeout	*>Label>Fadeout	*>Label>Fadeout	*>Label>Fadeout	*>Label>Fadeout	*>Label>Fadeout	*>Label>Fadeout	*>Label>Fadeout	*>Label>Fadeout
1Gmm	G:min7	8F	Do	1r	.	.	254.235	newline
.	.	8G	it	.	.	.	.	.
.	.	8B-q	_	.	.	.	.	.
.	.	8c	light,	.	.	B	.	.
.	.	8r	.	.	.	.	.	.
.	.	8r	.	.	.	.	.	.
.	.	[8B-	ta	.	.	(G	.	.
.	.	16B-]	_	.	.	.	.	.
.	.	16G	kin'	.	.	a)	.	.
.	.	8F	me	.	.	.	.	.
=113	=113	=113	=113	=113	=113	=113	=113	=113
1Gmm	G:min7	8D	through	1r	.	.	256.587	.
.	.	8G	the	.	.	.	.	.
.	.	8G	night.	.	.	B	.	.
.	.	8r	.	.	.	.	.	.
.	.	8r	.	.	.	.	.	.
.	.	8F	Sha-	.	.	.	.	.
.	.	8G	-dow	.	.	.	.	.
.	.	8B-	dan-	.	.	.	.	.
=114	=114	=114	=114	=114	=114	=114	=114	=114
.	.	8Fq	_	.	.	.	.	.
1Gmm	G:min7	8.G	-cing,	1r	.	a	258.938	.
.	.	16F	_	.	.	.	.	.
.	.	16D	_	.	.	.	.	.
.	.	16C	_	.	.	.	.	.
.	.	8BB-	_	.	.	.	.	.
.	.	8r	.	.	.	.	.	.
.	.	[8F	ba	.	.	G	.	.
.	.	16F]	_	.	.	.	.	.
.	.	16D	by,	.	.	.	.	.
.	.	8C	you	.	.	.	.	.
=115	=115	=115	=115	=115	=115	=115	=115	=115
1Gmm	G:min7	8BB-	do	1r	.	.	261.29	.
.	.	16C	it	.	.	.	.	.
.	.	16BB-	_	.	.	.	.	.
.	.	8D	right,	.	.	B	.	.
.	.	16C	_	.	.	.	.	.
.	.	16BB-	_	.	.	.	.	.
.	.	8r	.	.	.	.	.	.
.	.	8c	uh-	.	.	.	.	.
.	.	16c	-huh!	.	.	.	.	.
.	.	16B-	_	.	.	.	.	.
.	.	8G	_	.	.	.	.	.
=116	=116	=116	=116	=116	=116	=116	=116	=116
1Gmm	G:min7	8F	Give	1r	.	.	263.642	newline
.	.	8G	me	.	.	.	.	.
.	.	8B-q	_	.	.	.	.	.
.	.	4c	more!	.	.	E	.	.
.	.	8r	.	.	.	.	.	.
.	.	16d-Q	_	.	.	.	.	.
.	.	16cQ	_	.	.	.	.	.
.	.	[8B-	Drag	.	.	.	.	.
.	.	16B-]	_	.	.	.	.	.
.	.	16G	me	.	.	.	.	.
.	.	8F	a-	.	.	.	.	.
=117	=117	=117	=117	=117	=117	=117	=117	=117
1Gmm	G:min7	8D	-cross	1r	.	.	265.713	.
.	.	8G	the	.	.	.	.	.
.	.	8G	floor!	.	.	E	.	.
.	.	8r	.	.	.	.	.	.
.	.	8r	.	.	.	.	.	.
.	.	8F	Sha-	.	.	.	.	.
.	.	8G	-dow	.	.	.	.	.
.	.	8B-	dan-	.	.	.	.	.
=118	=118	=118	=118	=118	=118	=118	=118	=118
.	.	8Fq	_	.	.	.	.	.
1Gmm	G:min7	8.G	-cing,	1r	.	a	267.785	.
.	.	16F	_	.	.	.	.	.
.	.	16D	_	.	.	.	.	.
.	.	16C	_	.	.	.	.	.
.	.	8BB-	_	.	.	.	.	.
.	.	8r	.	.	.	.	.	.
.	.	[8F	all	.	.	.	.	.
.	.	16F]	_	.	.	.	.	.
.	.	16D	this	.	.	.	.	.
.	.	8C	and	.	.	.	.	.
=119	=119	=119	=119	=119	=119	=119	=119	=119
1Gmm	G:min7	8BB-	no-	1r	.	.	269.857	.
.	.	16C	-thin'	.	.	a	.	.
.	.	16BB-	_	.	.	.	.	.
.	.	8D	more!	.	.	E	.	.
.	.	16C	_	.	.	.	.	.
.	.	16BB-	_	.	.	.	.	.
.	.	2r	.	.	.	.	.	.
1r;	1r	r;	.	r;	.	.	271.929	.
1r;	1r	r;	.	r;	.	.	273.711	.
*-	*-	*-	*-	*-	*-	*-	*-	*-
!!!BillboardChartDate: 1978/09/30, 1978/09/02
!!!BillboardPeak: 1, 1
!!!BillboardWeeksOnChart: 25, 25
!!!COC: Andy Gibb
!!!ENC: Nathaniel Condit-Schultz
!!!EST: Awating manual error checking and editing.
!!!OTL: Shadow Dancing
!!!RDF**chordsym: original McGill chord annotation + (implied pitch class set, with bass pitch in first position)
!!!RDF**harmony: **recip + pitch class of root + harmonic quality
!!!RDF**leadinstrument: original McGill primary instrumentation annotation
!!!RDF**phrase: newline = linebreak in original McGill transcription
!!!RDF**timestamp: McGill audio timestamp in seconds
!!!RDT: 2017/01/12/
!!!SampleActualRank: 96, 50
!!!SampleID#: 193, 737
!!!SampleTargetRank: 96, 52
!!!MBID: fad43619-25b9-4024-aed7-944aadda5815